!!!OTL: "Liebesentzuecken" MEIN MAEDEL HAT EINEN ROSENMUND
!!!ARE: Europa, Mitteleuropa, Deutschland, Hessen
!!!SCT: Z1164
!!!YEM: Copyright 1995, estate of Helmut Schaffrath.
**kern
*ICvox
*Ivox
*M4/4
*k[b-e-]
*B-:
{4f
=1
4b-
4b-
4b-
8cc
8b-
=2
4.a
8g
4f}
{4f
=3
4g
4g
4b-
8a
8g
=4
4.f
8e-
4d}
{4f
=5
4b-
4b-
4cc
4cc
=6
4dd
2r}
{8b-
8cc
=7
4dd
4dd
4dd
4ff
=8
8ff
8ee-
8ee-
8dd
4cc}
{4b-
=9
8cc
8cc
8cc
8cc
4cc
8dd
8ee-
=10
8ff
8ee-
8dd
8cc
4.b-}
{8dd
=11
8dd
8cc
8ee-
8cc
4b-
4a
=12
4b-
2r}
==
!!!AGN: Liebes - Lied
!!!ONB: ESAC (Essen Associative Code) Database: ZUCCAL
!!!AMT: simple quadruple
!!!AIN: vox
!!!EED: Helmut Schaffrath
!!!EEV: 1.0
*-
